X: 19624
T: Jarlath's
R: reel
M: 4/4
K: Gmajor
BA|G3B AG3|AB B2 AG3|ABde d3B|deed BA A2|
G3B AG3|AB B2 AG3|ABde d3B|deBA GEDE|
G3B AG3|AB B2 AG3|ABde d3B|deed BA A2|
G3B AG3|AB B2 AG3|ABde d3B|deBA G2 (3Bcd||
g2 g2 ab b2|bage g2ag|egga gedg|deed BA A2|
g2 g2 ab b2|bage g2ag|egga gedg|deBA BG (3Bcd|
g2 g2 ab b2|bage g2ag|egga gedg|deed BA A2|
g2 g2 ab b2|bage g2ag|egga gedg|dedB G2 BA||

